X:1
T:Down the Broom
R:reel
M:4/4
L:1/8
K:ADor
EAAG~A2 Bd|eg~g2 egdc|BGGF GAGE|~D2B,D GABG|
EAAG ~A2 Bd|eg~g2 egdg|eg~g2 dgba|gedB BAA2:|
~a2ea agea|agbg agef|~g2dg Bgdg|gfga gede|
~a2 ea agea|agbg ageg|dg~g2 dgba|gedB BA A2:|
</abc>
<abc>
